ticatch-front/public/images/HardCard.svg

<svg width="318" height="400" viewBox="0 0 318 400" fill="none" xmlns="http://www.w3.org/2000/svg"><g filter="url(#filter0_d_120_1948)"><rect x="1" width="309" height="392" rx="24" fill="#E2ADFE"/><g filter="url(#filter1_biiii_120_1948)"><rect width="309" height="392" rx="24" fill="#B3D5AC" fill-opacity=".109"/></g><path d="M90.7227 319v-42.422h8.789v17.578H117.91v-17.578h8.848V319h-8.848v-17.578H99.5117V319h-8.789Zm41.4843-8.906c0-7.09 5.742-9.434 11.836-9.785 2.285-.147 6.562-.352 7.91-.411v-2.578c-.058-2.636-1.875-4.218-5.098-4.218-2.929 0-4.804 1.347-5.273 3.515h-8.262c.528-5.508 5.332-9.844 13.77-9.844 6.914 0 13.476 3.106 13.476 10.782V319h-8.203v-4.395h-.234c-1.582 2.93-4.57 4.981-9.317 4.981-6.093 0-10.605-3.164-10.605-9.492Zm8.32-.235c0 2.461 1.993 3.75 4.746 3.75 3.926 0 6.739-2.636 6.68-5.976v-2.344c-1.318.059-5.01.264-6.504.41-2.988.293-4.922 1.699-4.922 4.16ZM167.188 319v-31.816h8.378v5.507h.352c1.172-3.925 4.102-5.976 7.676-5.976.879 0 1.992.117 2.754.293v7.734c-.821-.234-2.461-.469-3.692-.469-3.926 0-6.797 2.754-6.797 6.622V319h-8.671Zm34.101.527c-7.266 0-12.949-5.8-12.949-16.406 0-10.898 5.918-16.348 12.949-16.348 5.332 0 7.852 3.165 9.023 5.743h.293v-15.938h8.672V319h-8.554v-5.098h-.411c-1.23 2.637-3.867 5.625-9.023 5.625Zm2.695-6.914c4.336 0 6.797-3.808 6.797-9.551 0-5.742-2.461-9.374-6.797-9.374-4.394 0-6.738 3.808-6.738 9.374 0 5.626 2.344 9.551 6.738 9.551Z" fill="#007CFF"/><circle cx="155" cy="160" r="88" fill="#FFF58B"/><g filter="url(#filter2_dii_120_1948)"><circle cx="155" cy="160" r="88" fill="url(#paint0_linear_120_1948)"/></g><g filter="url(#filter3_f_120_1948)"><path d="M111 165c0 9.389-7.611 17-17 17-9.3888 0-17-7.611-17-17s7.6112-17 17-17c9.389 0 17 7.611 17 17Z" fill="#F06" fill-opacity=".3"/></g><g filter="url(#filter4_f_120_1948)"><path d="M232 163c0 9.389-7.611 17-17 17s-17-7.611-17-17 7.611-17 17-17 17 7.611 17 17Z" fill="#F06" fill-opacity=".3"/></g></g><g filter="url(#filter5_df_120_1948)"><path stroke="#424242" stroke-width="8" stroke-linecap="round" d="m135.925 197.52 46.002-.852"/></g><g filter="url(#filter6_df_120_1948)"><ellipse cx="187" cy="149.093" rx="6" ry="8.5" fill="#424242"/></g><g filter="url(#filter7_df_120_1948)"><circle cx="120" cy="150.593" r="7" fill="#424242"/></g><g filter="url(#filter8_df_120_1948)"><path d="M105 139.593c6-7.2 13.167-5.667 16-4 5.5 3.235 12 3.5 14-2" stroke="#424242" stroke-width="6" stroke-linecap="round"/></g><g filter="url(#filter9_df_120_1948)"><path d="M172 130.593c7.2-14 19.897-18.306 25-17.5 9.5 1.5 8 9 9.5 12.5" stroke="#424242" stroke-width="6" stroke-linecap="round"/></g><defs><filter id="filter0_d_120_1948" x="0" y="0" width="318" height="400" filterUnits="userSpaceOnUse" color-interpolation-filters="sRGB"><feFlood flood-opacity="0" result="BackgroundImageFix"/><feColorMatrix in="SourceAlpha" values="0 0 0 0 0 0 0 0 0 0 0 0 0 0 0 0 0 0 127 0" result="hardAlpha"/><feOffset dx="4" dy="4"/><feGaussianBlur stdDeviation="2"/><feComposite in2="hardAlpha" operator="out"/><feColorMatrix values="0 0 0 0 0 0 0 0 0 0 0 0 0 0 0 0 0 0 0.25 0"/><feBlend in2="BackgroundImageFix" result="effect1_dropShadow_120_1948"/><feBlend in="SourceGraphic" in2="effect1_dropShadow_120_1948" result="shape"/></filter><filter id="filter1_biiii_120_1948" x="-71.502" y="-71.502" width="452.004" height="535.004" filterUnits="userSpaceOnUse" color-interpolation-filters="sRGB"><feFlood flood-opacity="0" result="BackgroundImageFix"/><feGaussianBlur in="BackgroundImageFix" stdDeviation="35.751"/><feComposite in2="SourceAlpha" operator="in" result="effect1_backgroundBlur_120_1948"/><feBlend in="SourceGraphic" in2="effect1_backgroundBlur_120_1948" result="shape"/><feColorMatrix in="SourceAlpha" values="0 0 0 0 0 0 0 0 0 0 0 0 0 0 0 0 0 0 127 0" result="hardAlpha"/><feOffset dx="-9.34667" dy="9.34667"/><feGaussianBlur stdDeviation="4.67333"/><feComposite in2="hardAlpha" operator="arithmetic" k2="-1" k3="1"/><feColorMatrix values="0 0 0 0 0.561569 0 0 0 0 0.668235 0 0 0 0 0.539608 0 0 0 0.418 0"/><feBlend in2="shape" result="effect2_innerShadow_120_1948"/><feColorMatrix in="SourceAlpha" values="0 0 0 0 0 0 0 0 0 0 0 0 0 0 0 0 0 0 127 0" result="hardAlpha"/><feOffset dx="-4.67333" dy="4.67333"/><feGaussianBlur stdDeviation="2.33667"/><feComposite in2="hardAlpha" operator="arithmetic" k2="-1" k3="1"/><feColorMatrix values="0 0 0 0 1 0 0 0 0 1 0 0 0 0 1 0 0 0 0.418 0"/><feBlend in2="effect2_innerShadow_120_1948" result="effect3_innerShadow_120_1948"/><feColorMatrix in="SourceAlpha" values="0 0 0 0 0 0 0 0 0 0 0 0 0 0 0 0 0 0 127 0" result="hardAlpha"/><feOffset dx="9.34667" dy="-9.34667"/><feGaussianBlur stdDeviation="4.67333"/><feComposite in2="hardAlpha" operator="arithmetic" k2="-1" k3="1"/><feColorMatrix values="0 0 0 0 1 0 0 0 0 1 0 0 0 0 1 0 0 0 0.418 0"/><feBlend in2="effect3_innerShadow_120_1948" result="effect4_innerShadow_120_1948"/><feColorMatrix in="SourceAlpha" values="0 0 0 0 0 0 0 0 0 0 0 0 0 0 0 0 0 0 127 0" result="hardAlpha"/><feOffset dx="4.67333" dy="-4.67333"/><feGaussianBlur stdDeviation="2.33667"/><feComposite in2="hardAlpha" operator="arithmetic" k2="-1" k3="1"/><feColorMatrix values="0 0 0 0 0.561569 0 0 0 0 0.668235 0 0 0 0 0.539608 0 0 0 0.418 0"/><feBlend in2="effect4_innerShadow_120_1948" result="effect5_innerShadow_120_1948"/></filter><filter id="filter2_dii_120_1948" x="20.0667" y="48.5333" width="269.867" height="269.867" filterUnits="userSpaceOnUse" color-interpolation-filters="sRGB"><feFlood flood-opacity="0" result="BackgroundImageFix"/><feColorMatrix in="SourceAlpha" values="0 0 0 0 0 0 0 0 0 0 0 0 0 0 0 0 0 0 127 0" result="hardAlpha"/><feOffset dy="23.4667"/><feGaussianBlur stdDeviation="23.4667"/><feColorMatrix values="0 0 0 0 0.2 0 0 0 0 0.192431 0 0 0 0 0.109167 0 0 0 0.25 0"/><feBlend in2="BackgroundImageFix" result="effect1_dropShadow_120_1948"/><feBlend in="SourceGraphic" in2="effect1_dropShadow_120_1948" result="shape"/><feColorMatrix in="SourceAlpha" values="0 0 0 0 0 0 0 0 0 0 0 0 0 0 0 0 0 0 127 0" result="hardAlpha"/><feOffset dy="7.82222"/><feGaussianBlur stdDeviation="3.91111"/><feComposite in2="hardAlpha" operator="arithmetic" k2="-1" k3="1"/><feColorMatrix values="0 0 0 0 1 0 0 0 0 1 0 0 0 0 0.633167 0 0 0 1 0"/><feBlend in2="shape" result="effect2_innerShadow_120_1948"/><feColorMatrix in="SourceAlpha" values="0 0 0 0 0 0 0 0 0 0 0 0 0 0 0 0 0 0 127 0" result="hardAlpha"/><feOffset dy="-7.82222"/><feGaussianBlur stdDeviation="3.91111"/><feComposite in2="hardAlpha" operator="arithmetic" k2="-1" k3="1"/><feColorMatrix values="0 0 0 0 0.8 0 0 0 0 0.769722 0 0 0 0 0.436667 0 0 0 1 0"/><feBlend in2="effect2_innerShadow_120_1948" result="effect3_innerShadow_120_1948"/></filter><filter id="filter3_f_120_1948" x="57" y="128" width="74" height="74" filterUnits="userSpaceOnUse" color-interpolation-filters="sRGB"><feFlood flood-opacity="0" result="BackgroundImageFix"/><feBlend in="SourceGraphic" in2="BackgroundImageFix" result="shape"/><feGaussianBlur stdDeviation="10" result="effect1_foregroundBlur_120_1948"/></filter><filter id="filter4_f_120_1948" x="178" y="126" width="74" height="74" filterUnits="userSpaceOnUse" color-interpolation-filters="sRGB"><feFlood flood-opacity="0" result="BackgroundImageFix"/><feBlend in="SourceGraphic" in2="BackgroundImageFix" result="shape"/><feGaussianBlur stdDeviation="10" result="effect1_foregroundBlur_120_1948"/></filter><filter id="filter5_df_120_1948" x="127.925" y="192.168" width="62.002" height="17.3521" filterUnits="userSpaceOnUse" color-interpolation-filters="sRGB"><feFlood flood-opacity="0" result="BackgroundImageFix"/><feColorMatrix in="SourceAlpha" values="0 0 0 0 0 0 0 0 0 0 0 0 0 0 0 0 0 0 127 0" result="hardAlpha"/><feOffset dy="4"/><feGaussianBlur stdDeviation="2"/><feComposite in2="hardAlpha" operator="out"/><feColorMatrix values="0 0 0 0 0 0 0 0 0 0 0 0 0 0 0 0 0 0 0.25 0"/><feBlend in2="BackgroundImageFix" result="effect1_dropShadow_120_1948"/><feBlend in="SourceGraphic" in2="effect1_dropShadow_120_1948" result="shape"/><feGaussianBlur stdDeviation=".25" result="effect2_foregroundBlur_120_1948"/></filter><filter id="filter6_df_120_1948" x="177" y="140.093" width="20" height="25.5" filterUnits="userSpaceOnUse" color-interpolation-filters="sRGB"><feFlood flood-opacity="0" result="BackgroundImageFix"/><feColorMatrix in="SourceAlpha" values="0 0 0 0 0 0 0 0 0 0 0 0 0 0 0 0 0 0 127 0" result="hardAlpha"/><feOffset dy="4"/><feGaussianBlur stdDeviation="2"/><feComposite in2="hardAlpha" operator="out"/><feColorMatrix values="0 0 0 0 0 0 0 0 0 0 0 0 0 0 0 0 0 0 0.25 0"/><feBlend in2="BackgroundImageFix" result="effect1_dropShadow_120_1948"/><feBlend in="SourceGraphic" in2="effect1_dropShadow_120_1948" result="shape"/><feGaussianBlur stdDeviation=".25" result="effect2_foregroundBlur_120_1948"/></filter><filter id="filter7_df_120_1948" x="109" y="143.093" width="22" height="22.5" filterUnits="userSpaceOnUse" color-interpolation-filters="sRGB"><feFlood flood-opacity="0" result="BackgroundImageFix"/><feColorMatrix in="SourceAlpha" values="0 0 0 0 0 0 0 0 0 0 0 0 0 0 0 0 0 0 127 0" result="hardAlpha"/><feOffset dy="4"/><feGaussianBlur stdDeviation="2"/><feComposite in2="hardAlpha" operator="out"/><feColorMatrix values="0 0 0 0 0 0 0 0 0 0 0 0 0 0 0 0 0 0 0.25 0"/><feBlend in2="BackgroundImageFix" result="effect1_dropShadow_120_1948"/><feBlend in="SourceGraphic" in2="effect1_dropShadow_120_1948" result="shape"/><feGaussianBlur stdDeviation=".25" result="effect2_foregroundBlur_120_1948"/></filter><filter id="filter8_df_120_1948" x="98" y="130.092" width="44.001" height="20.5007" filterUnits="userSpaceOnUse" color-interpolation-filters="sRGB"><feFlood flood-opacity="0" result="BackgroundImageFix"/><feColorMatrix in="SourceAlpha" values="0 0 0 0 0 0 0 0 0 0 0 0 0 0 0 0 0 0 127 0" result="hardAlpha"/><feOffset dy="4"/><feGaussianBlur stdDeviation="2"/><feComposite in2="hardAlpha" operator="out"/><feColorMatrix values="0 0 0 0 0 0 0 0 0 0 0 0 0 0 0 0 0 0 0.25 0"/><feBlend in2="BackgroundImageFix" result="effect1_dropShadow_120_1948"/><feBlend in="SourceGraphic" in2="effect1_dropShadow_120_1948" result="shape"/><feGaussianBlur stdDeviation=".25" result="effect2_foregroundBlur_120_1948"/></filter><filter id="filter9_df_120_1948" x="164.999" y="109.5" width="48.502" height="32.0938" filterUnits="userSpaceOnUse" color-interpolation-filters="sRGB"><feFlood flood-opacity="0" result="BackgroundImageFix"/><feColorMatrix in="SourceAlpha" values="0 0 0 0 0 0 0 0 0 0 0 0 0 0 0 0 0 0 127 0" result="hardAlpha"/><feOffset dy="4"/><feGaussianBlur stdDeviation="2"/><feComposite in2="hardAlpha" operator="out"/><feColorMatrix values="0 0 0 0 0 0 0 0 0 0 0 0 0 0 0 0 0 0 0.25 0"/><feBlend in2="BackgroundImageFix" result="effect1_dropShadow_120_1948"/><feBlend in="SourceGraphic" in2="effect1_dropShadow_120_1948" result="shape"/><feGaussianBlur stdDeviation=".25" result="effect2_foregroundBlur_120_1948"/></filter><linearGradient id="paint0_linear_120_1948" x1="155" y1="72" x2="155" y2="248" gradientUnits="userSpaceOnUse"><stop stop-color="#FFFF9C"/><stop offset="1" stop-color="#D6CE75"/></linearGradient></defs></svg>

<svg width="318" height="400" viewBox="0 0 318 400" fill="none" xmlns="http://www.w3.org/2000/svg">
<g filter="url(#filter0_d_120_1948)">
<rect x="1" width="309" height="392" rx="24" fill="#E2ADFE"/>
<g filter="url(#filter1_biiii_120_1948)">
<rect width="309" height="392" rx="24" fill="#B3D5AC" fill-opacity="0.109"/>
</g>
<path d="M90.7227 319V276.578H99.5117V294.156H117.91V276.578H126.758V319H117.91V301.422H99.5117V319H90.7227ZM132.207 310.094C132.207 303.004 137.949 300.66 144.043 300.309C146.328 300.162 150.605 299.957 151.953 299.898V297.32C151.895 294.684 150.078 293.102 146.855 293.102C143.926 293.102 142.051 294.449 141.582 296.617H133.32C133.848 291.109 138.652 286.773 147.09 286.773C154.004 286.773 160.566 289.879 160.566 297.555V319H152.363V314.605H152.129C150.547 317.535 147.559 319.586 142.812 319.586C136.719 319.586 132.207 316.422 132.207 310.094ZM140.527 309.859C140.527 312.32 142.52 313.609 145.273 313.609C149.199 313.609 152.012 310.973 151.953 307.633V305.289C150.635 305.348 146.943 305.553 145.449 305.699C142.461 305.992 140.527 307.398 140.527 309.859ZM167.188 319V287.184H175.566V292.691H175.918C177.09 288.766 180.02 286.715 183.594 286.715C184.473 286.715 185.586 286.832 186.348 287.008V294.742C185.527 294.508 183.887 294.273 182.656 294.273C178.73 294.273 175.859 297.027 175.859 300.895V319H167.188ZM201.289 319.527C194.023 319.527 188.34 313.727 188.34 303.121C188.34 292.223 194.258 286.773 201.289 286.773C206.621 286.773 209.141 289.938 210.312 292.516H210.605V276.578H219.277V319H210.723V313.902H210.312C209.082 316.539 206.445 319.527 201.289 319.527ZM203.984 312.613C208.32 312.613 210.781 308.805 210.781 303.062C210.781 297.32 208.32 293.688 203.984 293.688C199.59 293.688 197.246 297.496 197.246 303.062C197.246 308.688 199.59 312.613 203.984 312.613Z" fill="#007CFF"/>
<circle cx="155" cy="160" r="88" fill="#FFF58B"/>
<g filter="url(#filter2_dii_120_1948)">
<circle cx="155" cy="160" r="88" fill="url(#paint0_linear_120_1948)"/>
</g>
<g filter="url(#filter3_f_120_1948)">
<path d="M111 165C111 174.389 103.389 182 94 182C84.6112 182 77 174.389 77 165C77 155.611 84.6112 148 94 148C103.389 148 111 155.611 111 165Z" fill="#FF0066" fill-opacity="0.3"/>
</g>
<g filter="url(#filter4_f_120_1948)">
<path d="M232 163C232 172.389 224.389 180 215 180C205.611 180 198 172.389 198 163C198 153.611 205.611 146 215 146C224.389 146 232 153.611 232 163Z" fill="#FF0066" fill-opacity="0.3"/>
</g>
</g>
<g filter="url(#filter5_df_120_1948)">
<line x1="135.925" y1="197.52" x2="181.927" y2="196.668" stroke="#424242" stroke-width="8" stroke-linecap="round"/>
</g>
<g filter="url(#filter6_df_120_1948)">
<ellipse cx="187" cy="149.093" rx="6" ry="8.5" fill="#424242"/>
</g>
<g filter="url(#filter7_df_120_1948)">
<circle cx="120" cy="150.593" r="7" fill="#424242"/>
</g>
<g filter="url(#filter8_df_120_1948)">
<path d="M105 139.593C111 132.393 118.167 133.926 121 135.593C126.5 138.828 133 139.093 135 133.593" stroke="#424242" stroke-width="6" stroke-linecap="round"/>
</g>
<g filter="url(#filter9_df_120_1948)">
<path d="M172 130.593C179.2 116.593 191.897 112.287 197 113.093C206.5 114.593 205 122.093 206.5 125.593" stroke="#424242" stroke-width="6" stroke-linecap="round"/>
</g>
<defs>
<filter id="filter0_d_120_1948" x="0" y="0" width="318" height="400" filterUnits="userSpaceOnUse" color-interpolation-filters="sRGB">
<feFlood flood-opacity="0" result="BackgroundImageFix"/>
<feColorMatrix in="SourceAlpha" type="matrix" values="0 0 0 0 0 0 0 0 0 0 0 0 0 0 0 0 0 0 127 0" result="hardAlpha"/>
<feOffset dx="4" dy="4"/>
<feGaussianBlur stdDeviation="2"/>
<feComposite in2="hardAlpha" operator="out"/>
<feColorMatrix type="matrix" values="0 0 0 0 0 0 0 0 0 0 0 0 0 0 0 0 0 0 0.25 0"/>
<feBlend mode="normal" in2="BackgroundImageFix" result="effect1_dropShadow_120_1948"/>
<feBlend mode="normal" in="SourceGraphic" in2="effect1_dropShadow_120_1948" result="shape"/>
</filter>
<filter id="filter1_biiii_120_1948" x="-71.502" y="-71.502" width="452.004" height="535.004" filterUnits="userSpaceOnUse" color-interpolation-filters="sRGB">
<feFlood flood-opacity="0" result="BackgroundImageFix"/>
<feGaussianBlur in="BackgroundImageFix" stdDeviation="35.751"/>
<feComposite in2="SourceAlpha" operator="in" result="effect1_backgroundBlur_120_1948"/>
<feBlend mode="normal" in="SourceGraphic" in2="effect1_backgroundBlur_120_1948" result="shape"/>
<feColorMatrix in="SourceAlpha" type="matrix" values="0 0 0 0 0 0 0 0 0 0 0 0 0 0 0 0 0 0 127 0" result="hardAlpha"/>
<feOffset dx="-9.34667" dy="9.34667"/>
<feGaussianBlur stdDeviation="4.67333"/>
<feComposite in2="hardAlpha" operator="arithmetic" k2="-1" k3="1"/>
<feColorMatrix type="matrix" values="0 0 0 0 0.561569 0 0 0 0 0.668235 0 0 0 0 0.539608 0 0 0 0.418 0"/>
<feBlend mode="normal" in2="shape" result="effect2_innerShadow_120_1948"/>
<feColorMatrix in="SourceAlpha" type="matrix" values="0 0 0 0 0 0 0 0 0 0 0 0 0 0 0 0 0 0 127 0" result="hardAlpha"/>
<feOffset dx="-4.67333" dy="4.67333"/>
<feGaussianBlur stdDeviation="2.33667"/>
<feComposite in2="hardAlpha" operator="arithmetic" k2="-1" k3="1"/>
<feColorMatrix type="matrix" values="0 0 0 0 1 0 0 0 0 1 0 0 0 0 1 0 0 0 0.418 0"/>
<feBlend mode="normal" in2="effect2_innerShadow_120_1948" result="effect3_innerShadow_120_1948"/>
<feColorMatrix in="SourceAlpha" type="matrix" values="0 0 0 0 0 0 0 0 0 0 0 0 0 0 0 0 0 0 127 0" result="hardAlpha"/>
<feOffset dx="9.34667" dy="-9.34667"/>
<feGaussianBlur stdDeviation="4.67333"/>
<feComposite in2="hardAlpha" operator="arithmetic" k2="-1" k3="1"/>
<feColorMatrix type="matrix" values="0 0 0 0 1 0 0 0 0 1 0 0 0 0 1 0 0 0 0.418 0"/>
<feBlend mode="normal" in2="effect3_innerShadow_120_1948" result="effect4_innerShadow_120_1948"/>
<feColorMatrix in="SourceAlpha" type="matrix" values="0 0 0 0 0 0 0 0 0 0 0 0 0 0 0 0 0 0 127 0" result="hardAlpha"/>
<feOffset dx="4.67333" dy="-4.67333"/>
<feGaussianBlur stdDeviation="2.33667"/>
<feComposite in2="hardAlpha" operator="arithmetic" k2="-1" k3="1"/>
<feColorMatrix type="matrix" values="0 0 0 0 0.561569 0 0 0 0 0.668235 0 0 0 0 0.539608 0 0 0 0.418 0"/>
<feBlend mode="normal" in2="effect4_innerShadow_120_1948" result="effect5_innerShadow_120_1948"/>
</filter>
<filter id="filter2_dii_120_1948" x="20.0667" y="48.5333" width="269.867" height="269.867" filterUnits="userSpaceOnUse" color-interpolation-filters="sRGB">
<feFlood flood-opacity="0" result="BackgroundImageFix"/>
<feColorMatrix in="SourceAlpha" type="matrix" values="0 0 0 0 0 0 0 0 0 0 0 0 0 0 0 0 0 0 127 0" result="hardAlpha"/>
<feOffset dy="23.4667"/>
<feGaussianBlur stdDeviation="23.4667"/>
<feColorMatrix type="matrix" values="0 0 0 0 0.2 0 0 0 0 0.192431 0 0 0 0 0.109167 0 0 0 0.25 0"/>
<feBlend mode="normal" in2="BackgroundImageFix" result="effect1_dropShadow_120_1948"/>
<feBlend mode="normal" in="SourceGraphic" in2="effect1_dropShadow_120_1948" result="shape"/>
<feColorMatrix in="SourceAlpha" type="matrix" values="0 0 0 0 0 0 0 0 0 0 0 0 0 0 0 0 0 0 127 0" result="hardAlpha"/>
<feOffset dy="7.82222"/>
<feGaussianBlur stdDeviation="3.91111"/>
<feComposite in2="hardAlpha" operator="arithmetic" k2="-1" k3="1"/>
<feColorMatrix type="matrix" values="0 0 0 0 1 0 0 0 0 1 0 0 0 0 0.633167 0 0 0 1 0"/>
<feBlend mode="normal" in2="shape" result="effect2_innerShadow_120_1948"/>
<feColorMatrix in="SourceAlpha" type="matrix" values="0 0 0 0 0 0 0 0 0 0 0 0 0 0 0 0 0 0 127 0" result="hardAlpha"/>
<feOffset dy="-7.82222"/>
<feGaussianBlur stdDeviation="3.91111"/>
<feComposite in2="hardAlpha" operator="arithmetic" k2="-1" k3="1"/>
<feColorMatrix type="matrix" values="0 0 0 0 0.8 0 0 0 0 0.769722 0 0 0 0 0.436667 0 0 0 1 0"/>
<feBlend mode="normal" in2="effect2_innerShadow_120_1948" result="effect3_innerShadow_120_1948"/>
</filter>
<filter id="filter3_f_120_1948" x="57" y="128" width="74" height="74" filterUnits="userSpaceOnUse" color-interpolation-filters="sRGB">
<feFlood flood-opacity="0" result="BackgroundImageFix"/>
<feBlend mode="normal" in="SourceGraphic" in2="BackgroundImageFix" result="shape"/>
<feGaussianBlur stdDeviation="10" result="effect1_foregroundBlur_120_1948"/>
</filter>
<filter id="filter4_f_120_1948" x="178" y="126" width="74" height="74" filterUnits="userSpaceOnUse" color-interpolation-filters="sRGB">
<feFlood flood-opacity="0" result="BackgroundImageFix"/>
<feBlend mode="normal" in="SourceGraphic" in2="BackgroundImageFix" result="shape"/>
<feGaussianBlur stdDeviation="10" result="effect1_foregroundBlur_120_1948"/>
</filter>
<filter id="filter5_df_120_1948" x="127.925" y="192.168" width="62.002" height="17.3521" filterUnits="userSpaceOnUse" color-interpolation-filters="sRGB">
<feFlood flood-opacity="0" result="BackgroundImageFix"/>
<feColorMatrix in="SourceAlpha" type="matrix" values="0 0 0 0 0 0 0 0 0 0 0 0 0 0 0 0 0 0 127 0" result="hardAlpha"/>
<feOffset dy="4"/>
<feGaussianBlur stdDeviation="2"/>
<feComposite in2="hardAlpha" operator="out"/>
<feColorMatrix type="matrix" values="0 0 0 0 0 0 0 0 0 0 0 0 0 0 0 0 0 0 0.25 0"/>
<feBlend mode="normal" in2="BackgroundImageFix" result="effect1_dropShadow_120_1948"/>
<feBlend mode="normal" in="SourceGraphic" in2="effect1_dropShadow_120_1948" result="shape"/>
<feGaussianBlur stdDeviation="0.25" result="effect2_foregroundBlur_120_1948"/>
</filter>
<filter id="filter6_df_120_1948" x="177" y="140.093" width="20" height="25.5" filterUnits="userSpaceOnUse" color-interpolation-filters="sRGB">
<feFlood flood-opacity="0" result="BackgroundImageFix"/>
<feColorMatrix in="SourceAlpha" type="matrix" values="0 0 0 0 0 0 0 0 0 0 0 0 0 0 0 0 0 0 127 0" result="hardAlpha"/>
<feOffset dy="4"/>
<feGaussianBlur stdDeviation="2"/>
<feComposite in2="hardAlpha" operator="out"/>
<feColorMatrix type="matrix" values="0 0 0 0 0 0 0 0 0 0 0 0 0 0 0 0 0 0 0.25 0"/>
<feBlend mode="normal" in2="BackgroundImageFix" result="effect1_dropShadow_120_1948"/>
<feBlend mode="normal" in="SourceGraphic" in2="effect1_dropShadow_120_1948" result="shape"/>
<feGaussianBlur stdDeviation="0.25" result="effect2_foregroundBlur_120_1948"/>
</filter>
<filter id="filter7_df_120_1948" x="109" y="143.093" width="22" height="22.5" filterUnits="userSpaceOnUse" color-interpolation-filters="sRGB">
<feFlood flood-opacity="0" result="BackgroundImageFix"/>
<feColorMatrix in="SourceAlpha" type="matrix" values="0 0 0 0 0 0 0 0 0 0 0 0 0 0 0 0 0 0 127 0" result="hardAlpha"/>
<feOffset dy="4"/>
<feGaussianBlur stdDeviation="2"/>
<feComposite in2="hardAlpha" operator="out"/>
<feColorMatrix type="matrix" values="0 0 0 0 0 0 0 0 0 0 0 0 0 0 0 0 0 0 0.25 0"/>
<feBlend mode="normal" in2="BackgroundImageFix" result="effect1_dropShadow_120_1948"/>
<feBlend mode="normal" in="SourceGraphic" in2="effect1_dropShadow_120_1948" result="shape"/>
<feGaussianBlur stdDeviation="0.25" result="effect2_foregroundBlur_120_1948"/>
</filter>
<filter id="filter8_df_120_1948" x="98" y="130.092" width="44.001" height="20.5007" filterUnits="userSpaceOnUse" color-interpolation-filters="sRGB">
<feFlood flood-opacity="0" result="BackgroundImageFix"/>
<feColorMatrix in="SourceAlpha" type="matrix" values="0 0 0 0 0 0 0 0 0 0 0 0 0 0 0 0 0 0 127 0" result="hardAlpha"/>
<feOffset dy="4"/>
<feGaussianBlur stdDeviation="2"/>
<feComposite in2="hardAlpha" operator="out"/>
<feColorMatrix type="matrix" values="0 0 0 0 0 0 0 0 0 0 0 0 0 0 0 0 0 0 0.25 0"/>
<feBlend mode="normal" in2="BackgroundImageFix" result="effect1_dropShadow_120_1948"/>
<feBlend mode="normal" in="SourceGraphic" in2="effect1_dropShadow_120_1948" result="shape"/>
<feGaussianBlur stdDeviation="0.25" result="effect2_foregroundBlur_120_1948"/>
</filter>
<filter id="filter9_df_120_1948" x="164.999" y="109.5" width="48.502" height="32.0938" filterUnits="userSpaceOnUse" color-interpolation-filters="sRGB">
<feFlood flood-opacity="0" result="BackgroundImageFix"/>
<feColorMatrix in="SourceAlpha" type="matrix" values="0 0 0 0 0 0 0 0 0 0 0 0 0 0 0 0 0 0 127 0" result="hardAlpha"/>
<feOffset dy="4"/>
<feGaussianBlur stdDeviation="2"/>
<feComposite in2="hardAlpha" operator="out"/>
<feColorMatrix type="matrix" values="0 0 0 0 0 0 0 0 0 0 0 0 0 0 0 0 0 0 0.25 0"/>
<feBlend mode="normal" in2="BackgroundImageFix" result="effect1_dropShadow_120_1948"/>
<feBlend mode="normal" in="SourceGraphic" in2="effect1_dropShadow_120_1948" result="shape"/>
<feGaussianBlur stdDeviation="0.25" result="effect2_foregroundBlur_120_1948"/>
</filter>
<linearGradient id="paint0_linear_120_1948" x1="155" y1="72" x2="155" y2="248" gradientUnits="userSpaceOnUse">
<stop stop-color="#FFFF9C"/>
<stop offset="1" stop-color="#D6CE75"/>
</linearGradient>
</defs>
</svg>
